src/lib/packages/icons/src/assets/line/file-list-times.svg

<svg xmlns="http://www.w3.org/2000/svg" width="24" height="24" fill="none"><path fill="currentColor" d="M11 19.25H6c-1.577 0-2.25-.673-2.25-2.25V5c0-1.577.673-2.25 2.25-2.25h5.25V5c0 2.418 1.332 3.75 3.75 3.75h2.25V11a.75.75 0 0 0 1.5 0V8a.747.747 0 0 0-.22-.53l-6-6a.749.749 0 0 0-.53-.22H6C3.582 1.25 2.25 2.582 2.25 5v12c0 2.418 1.332 3.75 3.75 3.75h5a.75.75 0 0 0 0-1.5ZM12.75 5V3.811l3.439 3.439H15c-1.577 0-2.25-.673-2.25-2.25Zm-5 6a.75.75 0 1 1-1.5 0 .75.75 0 0 1 1.5 0Zm0 4a.75.75 0 1 1-1.5 0 .75.75 0 0 1 1.5 0ZM14 10.25a.75.75 0 0 1 0 1.5H9.5a.75.75 0 0 1 0-1.5H14ZM11.75 15a.75.75 0 0 1-.75.75H9.5a.75.75 0 0 1 0-1.5H11a.75.75 0 0 1 .75.75ZM18 13.25A4.756 4.756 0 0 0 13.25 18 4.756 4.756 0 0 0 18 22.75 4.756 4.756 0 0 0 22.75 18 4.756 4.756 0 0 0 18 13.25Zm0 8A3.254 3.254 0 0 1 14.75 18 3.254 3.254 0 0 1 18 14.75 3.254 3.254 0 0 1 21.25 18 3.254 3.254 0 0 1 18 21.25Zm1.53-3.72-.47.47.47.47a.75.75 0 0 1-1.06 1.061l-.47-.47-.47.47a.748.748 0 0 1-1.06 0 .75.75 0 0 1 0-1.061l.47-.47-.47-.47a.75.75 0 1 1 1.061-1.061l.47.47.47-.47a.75.75 0 1 1 1.059 1.061Z"/></svg>

<svg width="24" height="24" viewBox="0 0 24 24" fill="none" xmlns="http://www.w3.org/2000/svg">
<path d="M11 19.25H6C4.423 19.25 3.75 18.577 3.75 17V5C3.75 3.423 4.423 2.75 6 2.75H11.25V5C11.25 7.418 12.582 8.75 15 8.75H17.25V11C17.25 11.414 17.586 11.75 18 11.75C18.414 11.75 18.75 11.414 18.75 11V8C18.75 7.801 18.671 7.61 18.53 7.47L12.53 1.47C12.389 1.329 12.199 1.25 12 1.25H6C3.582 1.25 2.25 2.582 2.25 5V17C2.25 19.418 3.582 20.75 6 20.75H11C11.414 20.75 11.75 20.414 11.75 20C11.75 19.586 11.414 19.25 11 19.25ZM12.75 5V3.811L16.189 7.25H15C13.423 7.25 12.75 6.577 12.75 5ZM7.75 11C7.75 11.414 7.414 11.75 7 11.75C6.586 11.75 6.25 11.414 6.25 11C6.25 10.586 6.586 10.25 7 10.25C7.414 10.25 7.75 10.586 7.75 11ZM7.75 15C7.75 15.414 7.414 15.75 7 15.75C6.586 15.75 6.25 15.414 6.25 15C6.25 14.586 6.586 14.25 7 14.25C7.414 14.25 7.75 14.586 7.75 15ZM14 10.25C14.414 10.25 14.75 10.586 14.75 11C14.75 11.414 14.414 11.75 14 11.75H9.5C9.086 11.75 8.75 11.414 8.75 11C8.75 10.586 9.086 10.25 9.5 10.25H14ZM11.75 15C11.75 15.414 11.414 15.75 11 15.75H9.5C9.086 15.75 8.75 15.414 8.75 15C8.75 14.586 9.086 14.25 9.5 14.25H11C11.414 14.25 11.75 14.586 11.75 15ZM18 13.25C15.381 13.25 13.25 15.381 13.25 18C13.25 20.619 15.381 22.75 18 22.75C20.619 22.75 22.75 20.619 22.75 18C22.75 15.381 20.619 13.25 18 13.25ZM18 21.25C16.208 21.25 14.75 19.792 14.75 18C14.75 16.208 16.208 14.75 18 14.75C19.792 14.75 21.25 16.208 21.25 18C21.25 19.792 19.792 21.25 18 21.25ZM19.53 17.53L19.0601 18L19.53 18.47C19.823 18.763 19.823 19.238 19.53 19.531C19.384 19.677 19.192 19.751 19 19.751C18.808 19.751 18.616 19.678 18.47 19.531L18 19.061L17.53 19.531C17.384 19.677 17.192 19.751 17 19.751C16.808 19.751 16.616 19.678 16.47 19.531C16.177 19.238 16.177 18.763 16.47 18.47L16.9399 18L16.47 17.53C16.177 17.237 16.177 16.762 16.47 16.469C16.763 16.176 17.238 16.176 17.531 16.469L18.001 16.939L18.4709 16.469C18.7639 16.176 19.239 16.176 19.532 16.469C19.823 16.762 19.823 17.238 19.53 17.53Z" fill="currentColor"/>
</svg>
